src/components/Sprite/svg/pensive.svg

<?xml version="1.0" encoding="UTF-8" standalone="no"?>
<svg
   xmlns:dc="http://purl.org/dc/elements/1.1/"
   xmlns:cc="http://creativecommons.org/ns#"
   xmlns:rdf="http://www.w3.org/1999/02/22-rdf-syntax-ns#"
   xmlns:svg="http://www.w3.org/2000/svg"
   xmlns="http://www.w3.org/2000/svg"
   xmlns:sodipodi="http://sodipodi.sourceforge.net/DTD/sodipodi-0.dtd"
   xmlns:inkscape="http://www.inkscape.org/namespaces/inkscape"
   width="128"
   height="128"
   viewBox="0 0 33.866666 33.866668"
   version="1.1"
   id="svg8"
   inkscape:version="1.0 (4035a4f, 2020-05-01)"
   sodipodi:docname="pensive.svg">
  <defs
     id="defs2" />
  <sodipodi:namedview
     id="base"
     pagecolor="#ffffff"
     bordercolor="#666666"
     borderopacity="1.0"
     inkscape:pageopacity="0.0"
     inkscape:pageshadow="2"
     inkscape:zoom="4.1074093"
     inkscape:cx="27.100208"
     inkscape:cy="52.413688"
     inkscape:document-units="px"
     inkscape:current-layer="layer1"
     inkscape:document-rotation="0"
     showgrid="true"
     units="px"
     inkscape:window-width="1777"
     inkscape:window-height="1102"
     inkscape:window-x="0"
     inkscape:window-y="25"
     inkscape:window-maximized="0"
     inkscape:snap-bbox="true"
     inkscape:snap-bbox-midpoints="true">
    <inkscape:grid
       type="xygrid"
       id="grid833"
       empspacing="4" />
    <inkscape:grid
       type="xygrid"
       id="grid835"
       spacingx="2.1166667"
       spacingy="2.1166667"
       empspacing="4"
       empcolor="#ff3f61"
       empopacity="0.25098039" />
  </sodipodi:namedview>
  <metadata
     id="metadata5">
    <rdf:RDF>
      <cc:Work
         rdf:about="">
        <dc:format>image/svg+xml</dc:format>
        <dc:type
           rdf:resource="http://purl.org/dc/dcmitype/StillImage" />
        <dc:title />
      </cc:Work>
    </rdf:RDF>
  </metadata>
  <g
     inkscape:label="Layer 1"
     inkscape:groupmode="layer"
     id="layer1">
    <path
       d="M 31.750001,16.933334 A 14.816667,14.816667 0 0 1 16.933334,31.750001 14.816667,14.816667 0 0 1 2.1166677,16.933334 14.816667,14.816667 0 0 1 16.933334,2.1166677 14.816667,14.816667 0 0 1 31.750001,16.933334"
       style="fill:#ffc107;stroke:none;stroke-width:3.175;stroke-linecap:round;stroke-linejoin:round"
       id="path855" />
    <path
       d="M 18.256248,22.754171 A 2.1166668,2.1166668 0 0 1 16.139582,24.870838 2.1166668,2.1166668 0 0 1 14.022915,22.754171 2.1166668,2.1166668 0 0 1 16.139582,20.637505 2.1166668,2.1166668 0 0 1 18.256248,22.754171"
       style="fill:#ffd54f;stroke:none;stroke-width:3.175;stroke-linecap:round;stroke-linejoin:round"
       id="circle894" />
    <path
       d="M 19.314583,23.812506 A 2.1166668,2.1166668 0 0 1 17.197916,25.929173 2.1166668,2.1166668 0 0 1 15.081249,23.812506 2.1166668,2.1166668 0 0 1 17.197916,21.695839 2.1166668,2.1166668 0 0 1 19.314583,23.812506"
       style="fill:#ffa000;stroke:none;stroke-width:3.175;stroke-linecap:round;stroke-linejoin:round"
       id="circle896" />
    <path
       d="M 18.785416,23.283339 A 2.1166668,2.1166668 0 0 1 16.668749,25.400005 2.1166668,2.1166668 0 0 1 14.552082,23.283339 2.1166668,2.1166668 0 0 1 16.668749,21.166672 2.1166668,2.1166668 0 0 1 18.785416,23.283339"
       style="fill:#37474f;stroke:none;stroke-width:3.175;stroke-linecap:round;stroke-linejoin:round"
       id="path857" />
    <path
       id="circle885"
       style="fill:#ffd54f;stroke:none;stroke-width:12;stroke-linecap:round;stroke-linejoin:round"
       d="M 64 8 A 56.000001 56.000001 0 0 0 8 64 A 56.000001 56.000001 0 0 0 26.453125 105.54688 A 56.000001 56.000001 0 0 1 12 68 A 56.000001 56.000001 0 0 1 68 12 A 56.000001 56.000001 0 0 1 105.54688 26.453125 A 56.000001 56.000001 0 0 0 64 8 z "
       transform="scale(0.26458334)" />
    <path
       d="M 17.078024,31.894691 A 14.816667,14.816667 0 0 0 31.894691,17.078024 14.816667,14.816667 0 0 0 27.012302,6.0854162 14.816667,14.816667 0 0 1 30.836358,16.019691 14.816667,14.816667 0 0 1 16.019691,30.836358 14.816667,14.816667 0 0 1 6.0854162,27.012301 14.816667,14.816667 0 0 0 17.078024,31.894691 Z"
       style="fill:#ffa000;stroke:none;stroke-width:3.175;stroke-linecap:round;stroke-linejoin:round"
       id="path892" />
    <path
       sodipodi:nodetypes="sscsssssscs"
       d="M 9.8349807,9.7065814 C 9.4203922,10.12117 9.4203912,10.788702 9.8349807,11.203291 L 10.802524,12.170832 9.8349807,13.138375 C 9.4203926,13.552964 9.4203912,14.220495 9.8349807,14.635084 10.24957,15.049672 10.917103,15.049672 11.331691,14.635084 L 13.047588,12.919187 C 13.099412,12.867363 13.145018,12.811667 13.183886,12.752927 13.455959,12.341746 13.410353,11.785242 13.047588,11.422478 L 11.331691,9.7065814 C 10.917103,9.2919927 10.249571,9.2919927 9.8349807,9.7065814 Z"
       style="fill:#ffd54f;stroke:none;stroke-width:2.11667;stroke-linecap:round;stroke-linejoin:round;stroke-miterlimit:4;stroke-dasharray:none"
       id="path954" />
    <path
       sodipodi:nodetypes="sscsssssscs"
       d="M 10.893313,10.764914 C 10.478725,11.179502 10.478724,11.847034 10.893313,12.261623 L 11.860856,13.229164 10.893313,14.196707 C 10.478726,14.611296 10.478724,15.278827 10.893313,15.693416 11.307902,16.108004 11.975435,16.108004 12.390023,15.693416 L 14.10592,13.977519 C 14.157744,13.925695 14.20335,13.869999 14.242218,13.811259 14.514291,13.400078 14.468685,12.843574 14.10592,12.48081 L 12.390023,10.764914 C 11.975435,10.350326 11.307903,10.350326 10.893313,10.764914 Z"
       style="fill:#ffa000;stroke:none;stroke-width:2.11667;stroke-linecap:round;stroke-linejoin:round;stroke-miterlimit:4;stroke-dasharray:none"
       id="path956" />
    <path
       id="path947"
       style="fill:#37474f;stroke:none;stroke-width:2.11667;stroke-linecap:round;stroke-linejoin:round;stroke-miterlimit:4;stroke-dasharray:none"
       d="M 10.364147,10.235748 C 9.9495588,10.650336 9.9495578,11.317868 10.364147,11.732457 L 11.33169,12.699998 10.364147,13.667541 C 9.9495592,14.08213 9.9495578,14.749661 10.364147,15.16425 10.778736,15.578838 11.446269,15.578838 11.860857,15.16425 L 13.576754,13.448353 C 13.628578,13.396529 13.674184,13.340833 13.713052,13.282093 13.985125,12.870912 13.939519,12.314408 13.576754,11.951644 L 11.860857,10.235748 C 11.446269,9.8211593 10.778737,9.8211593 10.364147,10.235748 Z"
       sodipodi:nodetypes="sscsssssscs" />
    <path
       id="path958"
       style="fill:#ffd54f;stroke:none;stroke-width:2.11667;stroke-linecap:round;stroke-linejoin:round;stroke-miterlimit:4;stroke-dasharray:none"
       d="M 23.101912,9.7065814 C 23.5165,10.12117 23.516501,10.788702 23.101912,11.203291 L 22.134368,12.170832 23.101912,13.138375 C 23.5165,13.552964 23.516501,14.220495 23.101912,14.635084 22.687322,15.049672 22.019789,15.049672 21.605201,14.635084 L 19.889304,12.919187 C 19.83748,12.867363 19.791874,12.811667 19.753006,12.752927 19.480933,12.341746 19.526539,11.785242 19.889304,11.422478 L 21.605201,9.7065814 C 22.019789,9.2919927 22.687321,9.2919927 23.101912,9.7065814 Z"
       sodipodi:nodetypes="sscsssssscs" />
    <path
       id="path960"
       style="fill:#ffa000;stroke:none;stroke-width:2.11667;stroke-linecap:round;stroke-linejoin:round;stroke-miterlimit:4;stroke-dasharray:none"
       d="M 24.160243,10.764914 C 24.574831,11.179502 24.574832,11.847034 24.160243,12.261623 L 23.1927,13.229164 24.160243,14.196707 C 24.57483,14.611296 24.574832,15.278827 24.160243,15.693416 23.745654,16.108004 23.078121,16.108004 22.663533,15.693416 L 20.947637,13.977519 C 20.895813,13.925695 20.850207,13.869999 20.811339,13.811259 20.539266,13.400078 20.584872,12.843574 20.947637,12.48081 L 22.663533,10.764914 C 23.078121,10.350326 23.745653,10.350326 24.160243,10.764914 Z"
       sodipodi:nodetypes="sscsssssscs" />
    <path
       sodipodi:nodetypes="sscsssssscs"
       d="M 23.631077,10.235748 C 24.045666,10.650336 24.045667,11.317868 23.631077,11.732457 L 22.663534,12.699998 23.631077,13.667541 C 24.045665,14.08213 24.045667,14.749661 23.631077,15.16425 23.216488,15.578838 22.548955,15.578838 22.134367,15.16425 L 20.41847,13.448353 C 20.366646,13.396529 20.32104,13.340833 20.282172,13.282093 20.0101,12.870912 20.055705,12.314408 20.41847,11.951644 L 22.134367,10.235748 C 22.548955,9.8211593 23.216487,9.8211593 23.631077,10.235748 Z"
       style="fill:#37474f;stroke:none;stroke-width:2.11667;stroke-linecap:round;stroke-linejoin:round;stroke-miterlimit:4;stroke-dasharray:none"
       id="path962" />
  </g>
</svg>

<svg xmlns="http://www.w3.org/2000/svg" width="128" height="128" viewBox="0 0 33.867 33.867">
    <path d="M31.75 16.933A14.817 14.817 0 0116.933 31.75 14.817 14.817 0 012.117 16.933 14.817 14.817 0 0116.933 2.117 14.817 14.817 0 0131.75 16.933" fill="#ffc107"/>
    <path d="M18.256 22.754a2.117 2.117 0 01-2.116 2.117 2.117 2.117 0 01-2.117-2.117 2.117 2.117 0 012.117-2.116 2.117 2.117 0 012.116 2.116" fill="#ffd54f"/>
    <path d="M19.315 23.813a2.117 2.117 0 01-2.117 2.116 2.117 2.117 0 01-2.117-2.116 2.117 2.117 0 012.117-2.117 2.117 2.117 0 012.117 2.117" fill="#ffa000"/>
    <path d="M18.785 23.283A2.117 2.117 0 0116.67 25.4a2.117 2.117 0 01-2.117-2.117 2.117 2.117 0 012.117-2.116 2.117 2.117 0 012.116 2.116" fill="#37474f"/>
    <path d="M16.933 2.117A14.817 14.817 0 002.117 16.933a14.817 14.817 0 004.882 10.993 14.817 14.817 0 01-3.824-9.934A14.817 14.817 0 0117.992 3.175a14.817 14.817 0 019.934 3.824 14.817 14.817 0 00-10.993-4.882z" fill="#ffd54f"/>
    <path d="M17.078 31.895a14.817 14.817 0 0014.817-14.817 14.817 14.817 0 00-4.883-10.993 14.817 14.817 0 013.824 9.935A14.817 14.817 0 0116.02 30.836a14.817 14.817 0 01-9.935-3.824 14.817 14.817 0 0010.993 4.883z" fill="#ffa000"/>
    <path d="M9.835 9.707a1.056 1.056 0 000 1.496l.968.968-.968.967a1.056 1.056 0 000 1.497 1.056 1.056 0 001.497 0l1.716-1.716a1.056 1.056 0 000-1.497l-1.716-1.715a1.056 1.056 0 00-1.497 0z" fill="#ffd54f"/>
    <path d="M10.893 10.765a1.056 1.056 0 000 1.497l.968.967-.968.968a1.056 1.056 0 000 1.496 1.056 1.056 0 001.497 0l1.716-1.715a1.056 1.056 0 000-1.497l-1.716-1.716a1.056 1.056 0 00-1.497 0z" fill="#ffa000"/>
    <path d="M10.364 10.236a1.056 1.056 0 000 1.496l.968.968-.968.968a1.056 1.056 0 000 1.496 1.056 1.056 0 001.497 0l1.716-1.716a1.056 1.056 0 000-1.497l-1.716-1.715a1.056 1.056 0 00-1.497 0z" fill="#37474f"/>
    <path d="M23.102 9.707a1.056 1.056 0 010 1.496l-.968.968.968.967a1.056 1.056 0 010 1.497 1.056 1.056 0 01-1.497 0L19.89 12.92a1.056 1.056 0 010-1.497l1.716-1.715a1.056 1.056 0 011.497 0z" fill="#ffd54f"/>
    <path d="M24.16 10.765a1.056 1.056 0 010 1.497l-.967.967.967.968a1.056 1.056 0 010 1.496 1.056 1.056 0 01-1.496 0l-1.716-1.715a1.056 1.056 0 010-1.497l1.716-1.716a1.056 1.056 0 011.496 0z" fill="#ffa000"/>
    <path d="M23.631 10.236a1.056 1.056 0 010 1.496l-.967.968.967.968a1.056 1.056 0 010 1.496 1.056 1.056 0 01-1.497 0l-1.716-1.716a1.056 1.056 0 010-1.497l1.716-1.715a1.056 1.056 0 011.497 0z" fill="#37474f"/>
</svg>
